images/catalog-breadcrumbs.svg

<svg width="13" height="13" viewBox="0 0 13 13" fill="none" xmlns="http://www.w3.org/2000/svg">
<path fill-rule="evenodd" clip-rule="evenodd" d="M0.871094 6.15002L6.87109 0.650024L12.8711 6.15002V12.35H0.871094V6.15002ZM1.87109 6.55002V11.35H11.8711V6.55002L6.87109 2.05002L1.87109 6.55002ZM5.87109 10.35H4.87109V6.84998H8.87109V10.35H7.87109V7.84998H5.87109V10.35Z" fill="white"/>
</svg>

<svg width="13" height="13" fill="none" xmlns="http://www.w3.org/2000/svg"><path fill-rule="evenodd" clip-rule="evenodd" d="m.87 6.15 6-5.5 6 5.5v6.2h-12v-6.2Zm1 .4v4.8h10v-4.8l-5-4.5-5 4.5Zm4 3.8h-1v-3.5h4v3.5h-1v-2.5h-2v2.5Z" fill="#fff"/></svg>
